X: 6588
T: Cats Of Paphos, The
R: reel
M: 4/4
K: Adorian
|:A,E E/E/E cAGE|DCDE DCB,G,|A,E E/E/E GEcA|e2dc dcAG|
A3c AGEC|D/D/D DE DCB,G,|A,C C/C/C DCEC|DCB,G, A,CB,G,:|
|:A,C C/C/C A,D D/D/D|CDEC DCB,G,|A,C C/C/C DE E/E/E|GAcA d3e|
c2dc A2cA|GcAG EDCB,|A,C C/C/C DCEC|1 DCB,G, A,CB,G,:|2 DCB,G, A,4||

